icons/file-ppt-line.svg

<svg xmlns="http://www.w3.org/2000/svg" width="24" height="24" fill="none"><g clip-path="url(#a)"><g><path fill="#121212" d="M3 2.992C3 2.444 3.447 2 3.999 2H16L21 7V20.993C21.0009 21.1243 20.976 21.2545 20.9266 21.3762C20.8772 21.4979 20.8043 21.6087 20.7121 21.7022C20.6199 21.7957 20.5101 21.8701 20.3892 21.9212C20.2682 21.9723 20.1383 21.9991 20.007 22H3.993C3.73038 21.9982 3.47902 21.8931 3.29322 21.7075C3.10742 21.5219 3.00209 21.2706 3 21.008V2.992ZM5 4V20H19V8H16V14H10V16H8V8H15V4H5ZM10 10V12H14V10H10Z"/></g></g><defs><clipPath id="a"><rect width="24" height="24" fill="white"/></clipPath></defs></svg>

<svg width="24" height="24" fill="none" xmlns="http://www.w3.org/2000/svg"><g clip-path="url(#a)"><path d="M3 2.992C3 2.444 3.447 2 3.999 2H16l5 5v13.993A1 1 0 0 1 20.007 22H3.993A1 1 0 0 1 3 21.008V2.992ZM5 4v16h14V8h-3v6h-6v2H8V8h7V4H5Zm5 6v2h4v-2h-4Z" /></g><defs><clipPath id="a"><path fill="#fff" d="M0 0h24v24H0z"/></clipPath></defs></svg>
